X:1
T:Title
%%score { ( 1 3 ) | ( 2 4 ) }
L:1/8
Q:1/4=100
M:4/4
K:Bb
V:1 treble nm="Grand Piano"
V:3 treble 
V:2 treble 
V:4 treble 
V:1
 d2 B2 F2 G2 | A3 G F4 | [Dd]2 [DB]2 [DF]2 [DG]2 | [_DA]3 [DG] C2 z2 | [B,DF]2 GA B2 [Ee]2 | %5
w: Clarence~T.~Steele * * *|||||
 [Fd]2 [Fc]2 [Ff]4 | G2 B2 A2 G2 |[M:8/4] F2 c2 [DB]4 z8 |[M:4/4] [EB]8 | [DB]8 |] %10
w: |||||
V:2
 [B,DF]2 [B,DF]2 [B,D]2 [B,DF]2 | [F,CE]3 [F,B,E] [F,A,E]4 | [B,,F,]2 [B,,F,]2 [B,,F,]2 [B,,F,]2 | %3
 [B,,=E,]3 [B,,E,] z2 E2 | B,,2 B,A, [G,DG]2 [C,C]2 | [F,B,]2 [E,A,]2 [D,B,]4 | %6
 [E,B,E]2 [E,G,E]2 [E,A,F]2 [E,B,E]2 |[M:8/4] [F,B,D]2 [F,A,E]2 [B,,B,]4 z8 |[M:4/4] [E,G,]8 | %9
 [B,,F,]8 |] %10
V:3
 x8 | x8 | x8 | z4 [F,F]4 | z2 [DF]2 z4 | x8 | x8 |[M:8/4] x16 |[M:4/4] x8 | x8 |] %10
V:4
 x8 | x8 | x8 | z4 A,,4 | x8 | x8 | x8 |[M:8/4] x16 |[M:4/4] x8 | x8 |] %10

